src/64x64/places/folder-gruvbox-original-purple-apple.svg

<?xml version="1.0" encoding="UTF-8"?>
<svg width="64" height="64" version="1" xmlns="http://www.w3.org/2000/svg">
 <rect x="4" y="22" width="56" height="36" rx="2.8" ry="2.8" opacity=".2"/>
 <path d="m4 46.2c0 1.551 1.2488 2.8 2.8 2.8h50.4c1.551 0 2.8-1.249 2.8-2.8v-30.4c0-1.551-1.249-2.8-2.8-2.8h-25.2c-4.2 0-5.6-6-9.8-6h-15.4c-1.5512 0-2.8 1.2488-2.8 2.8" fill="#8f3f71"/>
 <rect x="4" y="20" width="56" height="36" rx="2.8" ry="2.8" opacity=".2"/>
 <rect x="8" y="16" width="48" height="22" rx="2.8" ry="2.8" fill="#E1D4B6"/>
 <rect x="4" y="21" width="56" height="36" rx="2.8" ry="2.8" fill="#d3869b"/>
 <path d="m6.8008 7c-1.5512 0-2.8008 1.2496-2.8008 2.8008v1.0002c0-1.5514 1.2496-2.801 2.8008-2.801h15.398c4.2 0 5.601 6 9.801 6h25.199c1.551 0 2.801 1.25 2.801 2.801v-1c0-1.551-1.25-2.801-2.801-2.801h-25.199c-4.2 0-5.601-6-9.801-6z" fill="#E1D4B6" opacity=".1"/>
 <path d="m35.98 29c-0.991 0.035-2.195 0.579-2.906 1.311-0.639 0.65-1.201 1.685-1.051 2.68 1.107 0.076 2.241-0.495 2.93-1.227 0.688-0.734 1.154-1.749 1.027-2.764zm-0.656 4.01c-1.315 0.105-2.516 0.969-3.196 0.969-0.774 0-1.969-0.939-3.238-0.914-1.668 0.027-3.208 1.038-4.067 2.641-1.732 3.226-0.446 8.005 1.243 10.622 0.825 1.281 1.836 2.672 3.105 2.672s1.715-0.867 3.219-0.867 1.915 0.867 3.243 0.867 2.184-1.333 3.004-2.617c0.947-1.486 1.34-2.927 1.363-3.001-0.03-0.014-2.611-1.072-2.637-4.262-0.025-2.67 2.034-3.952 2.125-4.015-1.154-1.813-2.953-2.062-3.594-2.09-0.191-0.021-0.382-0.019-0.57-4e-3z" fill="#393534"/>
</svg>

<svg xmlns="http://www.w3.org/2000/svg" width="64" height="64" version="1">
 <rect style="opacity:0.2" width="56" height="36" x="4" y="22" rx="2.8" ry="2.8"/>
 <path style="fill:#8f3f71" d="M 4,46.2 C 4,47.751 5.2488,49 6.8,49 H 57.2 C 58.751,49 60,47.751 60,46.2 V 15.8 C 60,14.249 58.751,13 57.2,13 H 32 C 27.8,13 26.4,7 22.2,7 H 6.8 C 5.2488,7 4,8.2488 4,9.8"/>
 <rect style="opacity:0.2" width="56" height="36" x="4" y="20" rx="2.8" ry="2.8"/>
 <rect style="fill:#E1D4B6" width="48" height="22" x="8" y="16" rx="2.8" ry="2.8"/>
 <rect style="fill:#d3869b" width="56" height="36" x="4" y="21" rx="2.8" ry="2.8"/>
 <path style="opacity:0.1;fill:#E1D4B6" d="M 6.8008,7 C 5.2496,7 4,8.2496 4,9.8008 V 10.801 C 4,9.2496 5.2496,8 6.8008,8 H 22.199 C 26.399,8 27.8,14 32,14 H 57.199 C 58.75,14 60,15.25 60,16.801 V 15.801 C 60,14.25 58.75,13 57.199,13 H 32 C 27.8,13 26.399,7 22.199,7 Z"/>
 <path style="fill:#393534" d="M 35.98,29 C 34.989,29.035 33.785,29.579 33.074,30.311 32.435,30.961 31.873,31.996 32.023,32.991 33.13,33.067 34.264,32.496 34.953,31.764 35.641,31.03 36.107,30.015 35.98,29 Z M 35.324,33.01 C 34.009,33.115 32.808,33.979 32.128,33.979 31.354,33.979 30.159,33.04 28.89,33.065 27.222,33.092 25.682,34.103 24.823,35.706 23.091,38.932 24.377,43.711 26.066,46.328 26.891,47.609 27.902,49 29.171,49 30.44,49 30.886,48.133 32.39,48.133 33.894,48.133 34.305,49 35.633,49 36.961,49 37.817,47.667 38.637,46.383 39.584,44.897 39.977,43.456 40,43.382 39.97,43.368 37.389,42.31 37.363,39.12 37.338,36.45 39.397,35.168 39.488,35.105 38.334,33.292 36.535,33.043 35.894,33.015 35.703,32.994 35.512,32.996 35.324,33.011 Z"/>
</svg>
